X:1
T:Henry Ford's March
T:Henry Ford's March
T:By PER. SELANDER. Arranged for Piano Solo by Joseph Jacobson. 
T:1916
T:1916
C:By PER. SELANDER.
Z:1916
%%score { 1 | 2 }
L:1/8
Q:1/4=100
M:4/4
K:G
V:1 treble nm="Piano" snm="Pno."
V:2 bass 
V:1
"^Tempo di marcia."!ff! !>![GBdg]2 B/c/d/B/ !>![EAce]2 A/B/c/A/ | %1
 !>![DGBd]2 (5:4:5[cf]/g/f/e/f/ !>![Bdg]2 |:!mf! !>![Bd]>[Ac] | %3
!<(! (BD G>A!<)!!>(! B[ce] [Bd]>[Ac]!>)! |!<(! BD G>A!<)! [GB]3) (3(B/c/B/ | %5
 [FA]D F>A c[eg] [df]>[ce] | d/e/d/c/ B/c/B/A/ G/e/d/^c/)!>(! (!>![Bd]>[A=c]!>)! | %7
!<(! BD G>!<)!A B[ce] [Bd]>[Ac] | BD G>A [GB]3) ([GB] | A/^G/A/B/ c/B/c/d/ e/d/e/f/ g/f/e/d/ |1 %10
!f! ^c/B/A/^G/ A/g/f/e/ d2) :|2!f! (^c/B/A/^G/ A/g/f/e/ d>)!>!d!ff! !>!e!>!f |: %12
 z [Bdg] z [Bdf] z [GBe] z [GBd] | z [GBe] z [GBd] z [DGB] z [DG] |!mf! F[ce] [ce]>d cF [DF]>F | %15
 G[ce] [Bd]>[Ac] [GB]>d!ff! ef | z [Bdg] z [Bdf] z [GBe] z [GBd] | z [GBe] z [GBd] z [DGB] z [DG] | %18
!mf! F[ce] [ce]>d cF [DF]>F |1 [FA]B/c/ BA!ff! G>d ef :|2 %20
 [FA]B/c/ BA G2"^FINE." !>![GBdg]2!fine! |]!mf!"^TRIO." .[CEG]2 .[CEG]2 .[CEG]2 .[CEG]2 |: %22
[K:C]!f! .[CEG]2 .[CEG]2 .[CEG]2 .[CEG]2 | .[CEG]2 .[CEG]2 .[CEG]2 .[CEG]2 | %24
 .[B,FG]2 .[B,FG]2 .[B,FG]2 .[B,FG]2 | .[B,FG]2 .[B,FG]2 .[CEG]2 .[CEG]2 | %26
 .[CEG]2 .[CEG]2 .[CEG]2 .[CEG]2 | .[CEG]2 .[CEG]2 .[CEG]2 .[CEG]2 | %28
 .[CEA]2 .[CEA]2 .[CEA]2 .[B,FG]2 | .[CEG]2 .[CEG]2 .[B,G]2!f! !>![FG]2 | ([EG]4 [Ec]2 [Fd]2 | %31
 [Ge]4- [Ge][Ec] (3[Ec]B[Ec] | [Fd]4- [Fd]>A [Ac]>[GB] | [FA]4 [EG]4 | %34
!ff! !>![EAc]4) !>![FAd]2 !>![FA^d]2 | (!>![Gce]2 !>![Aca]2 !>![Gceg]2 !>![GBdf]2 | %36
 [Gce](3G/A/G/ ^FG [Gce]3 [FGBd] | %37
 [EGc]A/G/ ^F/G/A/B/"^March Da Capo al Fine." [EGc][EGc]/)[EGc]/ [EGc]2!D.C.! |] %38
V:2
 [G,,G,]2 z2 [C,C]2 z2 | !>![D,D]2 !>![D,,D,]2 [G,,G,]2 |: z2 | %3
 G,,[G,B,] B,,[D,G,B,] G,,[G,B,] B,,[D,G,B,] | G,,[G,B,] B,,[D,G,B,] G,,[D,G,B,] [D,G,B,][D,G,B,] | %5
 D,[F,C] A,,[F,C] D,[F,C] A,,[D,F,C] | !>![G,,,G,,]2 !>![B,,,B,,]2 !>![D,,D,]2 !>![G,,G,]2 | %7
 G,,[G,B,] B,,[D,G,B,] G,,[G,B,] B,,[D,G,B,] | G,,[G,B,] B,,[D,G,B,] G,,[D,G,B,] [D,G,B,][D,G,B,] | %9
"^cresc." !>![C,E,A,]2 !>![C,E,A,]2 !>![C,E,A,]2 !>![C,E,A,]2 |1 %10
 !>![A,,E,G,]2 !>![A,,E,G,]2 !>![D,F,]2 :|2 %11
 !>![A,,E,G,]2 !>![A,,E,G,]2 [D,F,]>!>![D,,D,] !>![E,,E,]!>![F,,F,] |: %12
 !>![G,,G,]2 !>![F,,F,]2 !>![E,,E,]2 !>![D,,D,]2 | %13
 !>![E,,E,]2 !>![D,,D,]2 !>![B,,,B,,]2 !>![G,,,G,,]2 | D,,[D,F,C] A,,[D,F,C] D,[F,C] A,,[D,F,C] | %15
 G,,[D,G,B,] B,,[D,G,B,] [G,,G,]>[D,,D,] [E,,E,][F,,F,] | %16
 !>![G,,G,]2 !>![F,,F,]2 !>![E,,E,]2 !>![D,,D,]2 | %17
 !>![E,,E,]2 !>![D,,D,]2 !>![B,,,B,,]2 !>![G,,,G,,]2 | D,,[D,F,C] A,,[D,F,C] D,[F,C] A,,[D,F,C] |1 %19
 D,,[D,F,C] A,,[D,F,C] [G,B,]>!>![D,,D,] !>![E,,E,]!>![F,,F,] :|2 %20
 D,,[D,F,C] A,,[D,F,C] [G,B,]2 [G,,G,]2 |] .[C,E,G,]2 .[C,E,G,]2 .[C,E,G,]2 .[C,E,G,]2 |: %22
[K:C] (G,,4"_Melodia marcato." C,2 D,2 | E,4- E,D, (3C,B,,C, | D,4- D,>B,, C,>B,, | A,,4 G,,4) | %26
 G,,4 C,2 D,2 | E,4- E,D, (3C,B,,C, | A,4- A,>E, G,>F, | E,4 D,2 !>![G,,D,G,]2 | %30
 C,"^cresc."[E,G,C] G,,[E,G,C] C,[E,G,C] G,,[F,G,B,] | %31
 C,[E,G,C]/[E,G,C]/ [E,G,C][E,G,C] G,,[E,G,C] C,[E,G,C] | %32
 D,,[F,A,D]/[F,A,D]/ [F,A,D][F,A,D] F,,[F,A,D] D,,[F,A,D] | %33
 D,,[F,A,D]/[F,A,D]/ [F,A,D][F,A,D] G,,[E,G,C] [E,G,C][E,G,C] | %34
 [A,,,A,,][E,G,C]/[E,G,C]/ [E,G,C][E,G,C] [F,,,F,,][F,A,D] [F,,F,]2 | %35
 !>![G,,G,]2 !>![F,,F,]2 !>![E,,E,]2 !>![D,,D,]2 | !>![C,,C,]2 [G,CE]2 [G,,G,]2 z2 | %37
 [C,,C,]2 [G,CE]2 [C,,C,]2 [C,,C,]2 |] %38

